assets/icons/standard/data_streams.svg

<?xml version="1.0"?><svg xmlns="http://www.w3.org/2000/svg" width="100" height="100" viewBox="0 0 100 100"><title></title><path d="m68.8 20.3a10.9 10.9 0 1 1-10.5 13.9h-0.4a5 5 0 0 0-5 5v4.3l6.3 6.3a1.9 1.9 0 0 1 0 2.8l-1.3 1.4a1.9 1.9 0 0 1-2.8 0l-2.1-2.1v9a10.8 10.8 0 0 1-10.5 10.9h-0.8a10.9 10.9 0 1 1-10.5-13.9 11 11 0 0 1 10.5 7.9h0.4a5 5 0 0 0 5-5v-8.7l-1.8 1.9a1.9 1.9 0 0 1-2.8 0l-1.4-1.4a1.9 1.9 0 0 1 0-2.8l5.9-5.9v-4.7a10.8 10.8 0 0 1 10.5-10.9h0.8a10.8 10.8 0 0 1 10.5-8z m-37.6 43.6a5 5 0 0 0-5 5 5 5 0 0 0 10 0 5 5 0 0 0-5-5z m37.6-37.7a5 5 0 0 0-5 5 5 5 0 1 0 10 0 5 5 0 0 0-5-5z" fill="#fff"></path></svg>

<svg data-name="Layer 1" xmlns="http://www.w3.org/2000/svg" width="100" height="100" viewBox="0 0 100 100"><path d="M68.8,20.3A10.9,10.9,0,1,1,58.3,34.2h-.4a5,5,0,0,0-5,5h0v4.3l6.3,6.3a1.93,1.93,0,0,1,0,2.8L57.9,54a1.93,1.93,0,0,1-2.8,0L53,51.9v9A10.85,10.85,0,0,1,42.5,71.8h-.8A10.91,10.91,0,1,1,31.2,57.9a11,11,0,0,1,10.5,7.9h.4a5,5,0,0,0,5-5h0V52.1L45.3,54a1.93,1.93,0,0,1-2.8,0l-1.4-1.4a1.93,1.93,0,0,1,0-2.8L47,43.9V39.2A10.85,10.85,0,0,1,57.5,28.3h.8A10.83,10.83,0,0,1,68.8,20.3ZM31.2,63.9a5,5,0,0,0-5,5,5,5,0,0,0,10,0A5,5,0,0,0,31.2,63.9ZM68.8,26.2a5,5,0,0,0-5,5,5,5,0,1,0,10,0A5,5,0,0,0,68.8,26.2Z" fill="#fff"/></svg>
